X:12
T:Midnight on the Water
S:Bernie Waugh
R:Waltz
M:3/4
L:1/8
K:D
|:DE|\
"D"{E}F2F2~FE|"Dmaj7"{E}F3E DE|"D6"FA3AB|"D"~AFDA,DE|
"D"F2"G"d2(3BdB|"D"A3FDE|F2"A"AFEF|"D"D4:|
|:(3ABc|\
"D"d2d3e|"G"~dcBABc|"D"{c}d3BAF|D4d2|
"Em"e2e3f|(3efed2e2|"F#m"{e}f3afe|dcBABc|
"G"d2d3e|(3dedc2B2|"D"A3BAF|"Bm"AFDA,DE|
"D"F2"G"d2{A}B2|"D"A2FA,DE|F2"A"{G}AFEF|"D"D4:|

